!!!OTL: Marias Romreise (305), S. 631f
!!!id: T0497
**kern
*clefG2
*k[]
*a:
{8g
=1
4cc
8b
4cc
8b
=2
8cc
8b
8cc
4g}
=3
{8g
=4
4cc
8b
4cc
8dd
=5
4cc
8b
4a
8cc
=6
4cc
8b
4a
8g
=7
4a}
4.r
{8a
=8
4.a
4a
8a
=9
4g
4.r
8cc
=10
4cc
8b
4a
8g
=11
8g
8g}
4.r
{8g
=12
8cc
8cc
8cc
4cc
8dd
=13
8cc
8b
8a
16b
16cc
8b
16a
16g
=14
4a}
4.r
==
*-
!!!minrhy: 16
!!!meters: 6/8 ]  ZZ[4
!!!cut: Marias Romreise (305), S. 631f
!!!reg: Luxemburg
!!!trd: Singendes Volk, Esch-Alzette 1937 posth.
!!!rhy1: X_  X__X_X__X_  X_X_X_X__   (x2)
!!!rhy2: X_  X__X_X__X_  X__X_X__X_  X__X_X__X_  X__0_.
!!!key: T0497  16  A 6/8 ]  ZZ[4
!!!mod: PENTATONIK ]  AMBITUS[5
!!!kad: -7b1-7b1
!!!akz: 3b3b3b-7b_3b3b3b13b11_11-7b3b1-7b_3b3b3b21_
!!!fot: 'a__aw_b__aw_
!!!for: 'a__b__c__d__
!!!fok: '^__^a_^d_^a_
!! PHRAS[AUFTAKTIG]
!!!fkt: geistliches Lied
!!!bem: Heffingen, fff Clemens-Wetz, 12.5.1935
!! THILL, Mathias
!! PR[9] 2K[4] 2G[9] 3K[9] 3G[6] 4A[7] 4Ü[0] 5A[4] 6K[0] 6G[0]
!! 7K[0] 7G[0] 8A[0] MEHR[0] SI[39] ABS[54] SR[13] SP[26]
!! ST[12] 2k[9] 2g[30] 3k[7] 3g[0] 4d[2] 4ü[0] 5d[4] 6k[0] 6g[0]
!! 7k[0] 7g[0] 8d[0] mehr[0] si[52] dm[-13] sr[39] sp[13]
!! 1F[53] 2F[37] 3F[5] 4F[0] LF[0] 2P[5] 3P[0] 4P[0] TRI[0] DF[4] AB[59]
!! TF[0] U3K[0] U3[0] U4[0] U4Ü[0] U5[9] U6K[0] U6[0] U7K[0] U7[0]
!! N1[18] N2K[0] N2[25] N3K[0] N3[24] N4[15] N4Ü[0] N5[9] N6K[0] N6[0]
!!!n7k: 0] N7[0] O1[0] O2K[0] O2[0] O3K[0] O3[0] HÖ[0
